musicdot/assets/api/cursos/baixo-braco-tres.svg

<svg xmlns="http://www.w3.org/2000/svg" version="1.0" viewBox="0 0 300 300"><path fill="#FFF" d="M256.063 256.065c-58.578 58.578-153.552 58.578-212.13 0s-58.578-153.552 0-212.13 153.552-58.578 212.13 0 58.578 153.552 0 212.13z"/><path fill="#86BF5A" d="M150 290.812c77.768 0 140.812-63.044 140.812-140.812S227.768 9.188 150 9.188 9.188 72.232 9.188 150 72.232 290.812 150 290.812z"/><path fill="#515151" d="M230.976 94.875l19.986 74.59a2.228 2.228 0 0 1-1.576 2.728l-165.87 44.444a2.228 2.228 0 0 1-2.729-1.573v-.001l-19.986-74.589a2.228 2.228 0 0 1 1.574-2.729l.002-.001 165.869-44.445a2.228 2.228 0 0 1 2.729 1.574l.001.002"/><path fill="#D1D1D1" d="M228.338 85.055l19.986 74.59a2.228 2.228 0 0 1-1.574 2.729L80.879 206.82a2.235 2.235 0 0 1-2.728-1.576l-19.986-74.59a2.235 2.235 0 0 1 1.575-2.729l165.87-44.446a2.228 2.228 0 0 1 2.728 1.576"/><path fill="#9E9E9E" d="M104.918 217.037a1.793 1.793 0 0 1-2.204-1.238l-27.118-96.603a1.793 1.793 0 0 1 1.238-2.204c.95-.264 1.935.29 2.204 1.238l27.118 96.603c.263.95-.29 1.935-1.238 2.204zm24.93-5.924a1.793 1.793 0 0 1-2.204-1.238l-27.118-96.603a1.793 1.793 0 0 1 1.238-2.204c.95-.264 1.935.29 2.204 1.238l27.118 96.603c.263.95-.29 1.935-1.238 2.204zm24.73-5.723a1.793 1.793 0 0 1-2.204-1.238l-27.118-96.603a1.793 1.793 0 0 1 1.238-2.204c.95-.264 1.935.29 2.204 1.238l27.118 96.603c.263.95-.29 1.935-1.238 2.204zm24.81-5.368a1.793 1.793 0 0 1-2.204-1.238l-27.118-96.603a1.793 1.793 0 0 1 1.238-2.204c.95-.263 1.935.29 2.204 1.238l27.118 96.603c.263.95-.29 1.934-1.238 2.204zm24.898-5.462a1.793 1.793 0 0 1-2.204-1.238L174.965 96.72a1.793 1.793 0 0 1 1.238-2.204c.95-.263 1.935.29 2.204 1.238l27.118 96.603a1.793 1.793 0 0 1-1.239 2.203zm26.409-8.941a1.793 1.793 0 0 1-2.204-1.238l-27.118-96.603a1.793 1.793 0 0 1 1.238-2.204c.95-.263 1.935.29 2.204 1.238l27.118 96.603c.263.95-.29 1.935-1.238 2.204z"/><path fill="#B7B7B7" d="M237.143 117.955l.496 1.853-170.173 45.598-.497-1.853 170.174-45.598zm3.68 13.688l.497 1.853-170.174 45.598-.496-1.853 170.173-45.598zm-7.318-27.289l.496 1.852-170.173 45.598-.497-1.853 170.174-45.597z"/><path fill="#494949" d="M48.842 166.958l196.566-52.67a1.671 1.671 0 1 0-.865-3.229l-196.566 52.67a1.671 1.671 0 1 0 .865 3.229m5.06-15.678l198.343-53.146a1.671 1.671 0 1 0-.865-3.229L53.037 148.051a1.671 1.671 0 1 0 .865 3.229"/><path fill="#B7B7B7" d="M244.146 144.025l.497 1.853-170.174 45.598-.496-1.853 170.173-45.598z"/><path fill="#494949" d="M48.842 195.393l196.566-52.67a1.671 1.671 0 1 0-.865-3.229l-196.566 52.67a1.671 1.671 0 1 0 .865 3.229m5.06-15.678l198.343-53.146a1.671 1.671 0 1 0-.865-3.229L53.037 176.486a1.673 1.673 0 0 0 .865 3.229"/><path fill="#6B6B6B" d="M83.286 146.59l-.518-1.847 3.452-.925.519 1.847-3.453.925zm3.809 13.556l-.519-1.847 3.453-.926.518 1.847-3.452.926zm3.83 13.657l-.518-1.847 3.453-.925.518 1.847-3.453.925zm3.458 12.319l-.518-1.847 3.453-.925.518 1.847-3.453.925zm13.641-46.143l-.519-1.846 3.453-.926.519 1.847-3.453.925zm3.793 13.512l-.519-1.847 3.453-.925.519 1.847-3.453.925zm3.836 13.668l-.518-1.847 3.453-.925.518 1.847-3.453.925zm3.475 12.348l-.518-1.847 3.452-.925.519 1.847-3.453.925zm13.379-46.133l-.519-1.847 3.453-.925.519 1.847-3.453.925zm3.793 13.512l-.519-1.847 3.453-.925.519 1.847-3.453.925zm3.836 13.668l-.518-1.847 3.453-.925.518 1.847-3.453.925zm3.475 12.348l-.518-1.847 3.453-.925.518 1.847-3.453.925zm13.381-46.063l-.518-1.846 3.453-.926.518 1.847-3.453.925zm3.793 13.512l-.518-1.847 3.453-.925.518 1.847-3.453.925zm3.837 13.668l-.519-1.847 3.453-.925.519 1.847-3.453.925zm3.474 12.348l-.518-1.847 3.453-.925.518 1.847-3.453.925zm13.471-46.096l-.519-1.847 3.453-.926.518 1.847-3.452.926zm3.793 13.512l-.519-1.847 3.453-.926.518 1.847-3.452.926zm3.836 13.667l-.518-1.847 3.453-.925.518 1.847-3.453.925zm3.475 12.348l-.519-1.847 3.453-.925.519 1.847-3.453.925zm15.786-46.743l-.518-1.847 3.453-.925.518 1.847-3.453.925zm3.793 13.512l-.518-1.847 3.453-.925.518 1.847-3.453.925zm3.837 13.668l-.518-1.847 3.452-.926.519 1.847-3.453.926zm3.475 12.348l-.519-1.847 3.453-.926.519 1.847-3.453.926z"/></svg>

<?xml version="1.0" encoding="utf-8"?>
<!-- Generator: Adobe Illustrator 23.0.0, SVG Export Plug-In . SVG Version: 6.00 Build 0)  -->
<svg version="1.0" id="Camada_1" xmlns="http://www.w3.org/2000/svg" xmlns:xlink="http://www.w3.org/1999/xlink" x="0px" y="0px"
	 viewBox="0 0 300 300" enable-background="new 0 0 300 300" xml:space="preserve">
<path fill="#FFFFFF" d="M256.063,256.065c-58.578,58.578-153.552,58.578-212.13,0s-58.578-153.552,0-212.13s153.552-58.578,212.13,0
	S314.641,197.487,256.063,256.065z"/>
<path fill="#86BF5A" d="M150,290.812c77.768,0,140.812-63.044,140.812-140.812S227.768,9.188,150,9.188S9.188,72.232,9.188,150
	S72.232,290.812,150,290.812z"/>
<path fill="#515151" d="M230.976,94.875l19.986,74.59c0.318,1.188-0.388,2.41-1.576,2.728l-165.87,44.444
	c-1.188,0.319-2.409-0.385-2.729-1.573v-0.001l-19.986-74.589c-0.319-1.188,0.386-2.41,1.574-2.729l0.002-0.001l165.869-44.445
	c1.188-0.319,2.41,0.386,2.729,1.574L230.976,94.875"/>
<path fill="#D1D1D1" d="M228.338,85.055l19.986,74.59c0.319,1.188-0.386,2.41-1.574,2.729L80.879,206.82
	c-1.188,0.314-2.406-0.39-2.728-1.576l-19.986-74.59c-0.315-1.188,0.389-2.407,1.575-2.729l165.87-44.446
	C226.798,83.161,228.019,83.866,228.338,85.055L228.338,85.055"/>
<path fill="#9E9E9E" d="M104.918,217.037c-0.95,0.264-1.935-0.29-2.204-1.238l-27.118-96.603c-0.264-0.95,0.29-1.935,1.238-2.204
	c0.95-0.264,1.935,0.29,2.204,1.238l27.118,96.603C106.419,215.783,105.866,216.768,104.918,217.037L104.918,217.037z
	 M129.848,211.113c-0.95,0.264-1.935-0.29-2.204-1.238l-27.118-96.603c-0.264-0.95,0.29-1.935,1.238-2.204
	c0.95-0.264,1.935,0.29,2.204,1.238l27.118,96.603C131.349,209.859,130.796,210.844,129.848,211.113L129.848,211.113z
	 M154.578,205.39c-0.95,0.264-1.935-0.29-2.204-1.238l-27.118-96.603c-0.264-0.95,0.29-1.935,1.238-2.204
	c0.95-0.264,1.935,0.29,2.204,1.238l27.118,96.603C156.079,204.136,155.526,205.121,154.578,205.39L154.578,205.39z
	 M179.388,200.022c-0.95,0.264-1.935-0.29-2.204-1.238l-27.118-96.603c-0.264-0.95,0.29-1.935,1.238-2.204
	c0.95-0.263,1.935,0.29,2.204,1.238l27.118,96.603C180.889,198.768,180.336,199.752,179.388,200.022L179.388,200.022z
	 M204.286,194.56c-0.95,0.264-1.935-0.29-2.204-1.238L174.965,96.72c-0.264-0.95,0.29-1.935,1.238-2.204
	c0.95-0.263,1.935,0.29,2.204,1.238l27.118,96.603C205.788,193.307,205.234,194.291,204.286,194.56L204.286,194.56z
	 M230.695,185.619c-0.95,0.264-1.935-0.29-2.204-1.238l-27.118-96.603c-0.264-0.95,0.29-1.935,1.238-2.204
	c0.95-0.263,1.935,0.29,2.204,1.238l27.118,96.603C232.196,184.365,231.643,185.35,230.695,185.619L230.695,185.619z"/>
<path fill="#B7B7B7" d="M237.143,117.955l0.496,1.853L67.466,165.406l-0.497-1.853C66.969,163.553,237.143,117.955,237.143,117.955z
	 M240.823,131.643l0.497,1.853L71.146,179.094l-0.496-1.853L240.823,131.643z M233.505,104.354l0.496,1.852L63.828,151.804
	l-0.497-1.853L233.505,104.354z"/>
<path fill="#494949" d="M48.842,166.958l196.566-52.67c0.892-0.239,1.421-1.155,1.182-2.047c-0.239-0.892-1.155-1.421-2.047-1.182
	l-196.566,52.67c-0.892,0.239-1.421,1.155-1.182,2.047C47.034,166.668,47.95,167.197,48.842,166.958 M53.902,151.28l198.343-53.146
	c0.892-0.239,1.421-1.155,1.182-2.047c-0.239-0.892-1.155-1.421-2.047-1.182l0,0L53.037,148.051
	c-0.892,0.239-1.421,1.155-1.182,2.047C52.094,150.99,53.01,151.519,53.902,151.28"/>
<path fill="#B7B7B7" d="M244.146,144.025l0.497,1.853L74.469,191.476l-0.496-1.853L244.146,144.025z"/>
<path fill="#494949" d="M48.842,195.393l196.566-52.67c0.892-0.239,1.421-1.155,1.182-2.047c-0.239-0.892-1.155-1.421-2.047-1.182
	l-196.566,52.67c-0.892,0.239-1.421,1.155-1.182,2.047C47.034,195.103,47.95,195.632,48.842,195.393 M53.902,179.715l198.343-53.146
	c0.892-0.239,1.421-1.155,1.182-2.047c-0.239-0.892-1.155-1.421-2.047-1.182L53.037,176.486c-0.881,0.278-1.371,1.217-1.093,2.098
	C52.204,179.412,53.055,179.903,53.902,179.715"/>
<path fill="#6B6B6B" d="M83.286,146.59l-0.518-1.847l3.452-0.925l0.519,1.847L83.286,146.59z M87.095,160.146l-0.519-1.847
	l3.453-0.926l0.518,1.847L87.095,160.146z M90.925,173.803l-0.518-1.847l3.453-0.925l0.518,1.847L90.925,173.803z M94.383,186.122
	l-0.518-1.847l3.453-0.925l0.518,1.847L94.383,186.122z M108.024,139.979l-0.519-1.846l3.453-0.926l0.519,1.847L108.024,139.979
	L108.024,139.979z M111.817,153.491l-0.519-1.847l3.453-0.925l0.519,1.847L111.817,153.491z M115.653,167.159l-0.518-1.847
	l3.453-0.925l0.518,1.847L115.653,167.159z M119.128,179.507l-0.518-1.847l3.452-0.925l0.519,1.847L119.128,179.507z
	 M132.507,133.374l-0.519-1.847l3.453-0.925l0.519,1.847L132.507,133.374z M136.3,146.886l-0.519-1.847l3.453-0.925l0.519,1.847
	L136.3,146.886z M140.136,160.554l-0.518-1.847l3.453-0.925l0.518,1.847L140.136,160.554z M143.611,172.902l-0.518-1.847
	l3.453-0.925l0.518,1.847L143.611,172.902z M156.992,126.839l-0.518-1.846l3.453-0.926l0.518,1.847L156.992,126.839z
	 M160.785,140.351l-0.518-1.847l3.453-0.925l0.518,1.847L160.785,140.351z M164.622,154.019l-0.519-1.847l3.453-0.925l0.519,1.847
	L164.622,154.019z M168.096,166.367l-0.518-1.847l3.453-0.925l0.518,1.847L168.096,166.367z M181.567,120.271l-0.519-1.847
	l3.453-0.926l0.518,1.847L181.567,120.271L181.567,120.271z M185.36,133.783l-0.519-1.847l3.453-0.926l0.518,1.847L185.36,133.783
	L185.36,133.783z M189.196,147.45l-0.518-1.847l3.453-0.925l0.518,1.847L189.196,147.45z M192.671,159.798l-0.519-1.847l3.453-0.925
	l0.519,1.847L192.671,159.798z M208.457,113.055l-0.518-1.847l3.453-0.925l0.518,1.847L208.457,113.055z M212.25,126.567
	l-0.518-1.847l3.453-0.925l0.518,1.847L212.25,126.567z M216.087,140.235l-0.518-1.847l3.452-0.926l0.519,1.847L216.087,140.235
	L216.087,140.235z M219.562,152.583l-0.519-1.847l3.453-0.926l0.519,1.847L219.562,152.583z"/>
</svg>
